src/img/bg-mapMarker.svg

<svg width="82" height="98" viewBox="0 0 82 98" fill="none" xmlns="http://www.w3.org/2000/svg">
<g filter="url(#filter0_d)">
<path d="M40.9491 6C22.794 6 8 20.759 8 38.8711C8 40.9287 8.17824 43.0118 8.58565 45.044C8.61111 45.171 8.66204 45.5266 8.81481 46.1363C9.32407 48.3463 10.0625 50.531 11.0301 52.614C14.5694 60.9461 22.3866 73.7745 39.5231 87.4919C39.956 87.8476 40.4653 88 41 88C41.5093 88 42.044 87.8222 42.4768 87.4919C59.588 73.7745 67.4306 60.9461 70.9699 52.614C71.9375 50.531 72.6759 48.3717 73.1852 46.1363C73.3125 45.5266 73.3889 45.1456 73.4144 45.044C73.7963 43.0118 74 40.9287 74 38.8711C73.9236 20.759 59.1296 6 40.9491 6Z" fill="white"/>
</g>
<defs>
<filter id="filter0_d" x="0" y="0" width="82" height="98" filterUnits="userSpaceOnUse" color-interpolation-filters="sRGB">
<feFlood flood-opacity="0" result="BackgroundImageFix"/>
<feColorMatrix in="SourceAlpha" type="matrix" values="0 0 0 0 0 0 0 0 0 0 0 0 0 0 0 0 0 0 127 0"/>
<feOffset dy="2"/>
<feGaussianBlur stdDeviation="4"/>
<feColorMatrix type="matrix" values="0 0 0 0 0 0 0 0 0 0 0 0 0 0 0 0 0 0 0.15 0"/>
<feBlend mode="normal" in2="BackgroundImageFix" result="effect1_dropShadow"/>
<feBlend mode="normal" in="SourceGraphic" in2="effect1_dropShadow" result="shape"/>
</filter>
</defs>
</svg>

<svg width="82" height="98" fill="none" xmlns="http://www.w3.org/2000/svg"><g filter="url(#filter0_d)"><path d="M40.95 6C22.793 6 8 20.759 8 38.871c0 2.058.178 4.14.586 6.173.025.127.076.483.229 1.092a32.994 32.994 0 002.215 6.478c3.54 8.332 11.357 21.16 28.493 34.878.433.356.942.508 1.477.508.51 0 1.044-.178 1.477-.508C59.588 73.774 67.43 60.946 70.97 52.614a32.439 32.439 0 002.215-6.478c.127-.61.204-.99.23-1.092A33.57 33.57 0 0074 38.871C73.924 20.76 59.13 6 40.95 6z" fill="#fff"/></g><defs><filter id="filter0_d" x="0" y="0" width="82" height="98" filterUnits="userSpaceOnUse" color-interpolation-filters="sRGB"><feFlood flood-opacity="0" result="BackgroundImageFix"/><feColorMatrix in="SourceAlpha" values="0 0 0 0 0 0 0 0 0 0 0 0 0 0 0 0 0 0 127 0"/><feOffset dy="2"/><feGaussianBlur stdDeviation="4"/><feColorMatrix values="0 0 0 0 0 0 0 0 0 0 0 0 0 0 0 0 0 0 0.15 0"/><feBlend in2="BackgroundImageFix" result="effect1_dropShadow"/><feBlend in="SourceGraphic" in2="effect1_dropShadow" result="shape"/></filter></defs></svg>
